communes/6084.svg

<?xml version="1.0" encoding="UTF-8" standalone="no"?>
<!-- Created with Inkscape (http://www.inkscape.org/) -->

<svg
   xmlns:dc="http://purl.org/dc/elements/1.1/"
   xmlns:cc="http://creativecommons.org/ns#"
   xmlns:rdf="http://www.w3.org/1999/02/22-rdf-syntax-ns#"
   xmlns:svg="http://www.w3.org/2000/svg"
   xmlns="http://www.w3.org/2000/svg"
   xmlns:sodipodi="http://sodipodi.sourceforge.net/DTD/sodipodi-0.dtd"
   xmlns:inkscape="http://www.inkscape.org/namespaces/inkscape"
   version="1.0"
   width="208.86046"
   height="244.65999"
   id="svg2780"
   inkscape:version="0.92.5 (2060ec1f9f, 2020-04-08)"
   sodipodi:docname="Hérémence-blazon.svg">
  <metadata
     id="metadata27">
    <rdf:RDF>
      <cc:Work
         rdf:about="">
        <dc:format>image/svg+xml</dc:format>
        <dc:type
           rdf:resource="http://purl.org/dc/dcmitype/StillImage" />
        <dc:title></dc:title>
      </cc:Work>
    </rdf:RDF>
  </metadata>
  <sodipodi:namedview
     pagecolor="#ffffff"
     bordercolor="#666666"
     borderopacity="1"
     objecttolerance="10"
     gridtolerance="10"
     guidetolerance="10"
     inkscape:pageopacity="0"
     inkscape:pageshadow="2"
     inkscape:window-width="3287"
     inkscape:window-height="1417"
     id="namedview25"
     showgrid="false"
     inkscape:zoom="4.0000001"
     inkscape:cx="116.79554"
     inkscape:cy="117.28653"
     inkscape:window-x="-8"
     inkscape:window-y="-8"
     inkscape:window-maximized="1"
     inkscape:current-layer="svg2780"
     inkscape:measure-start="104.255,149.787"
     inkscape:measure-end="104.255,126.383"
     showguides="true"
     inkscape:object-paths="true"
     inkscape:snap-intersection-paths="true" />
  <defs
     id="defs2782" />
  <path
     id="path4212-7"
     style="fill:#cc2918;fill-opacity:1;fill-rule:evenodd;stroke:#000000;stroke-width:1.99999988;stroke-linecap:butt;stroke-miterlimit:4;stroke-dashoffset:0;stroke-opacity:1"
     d="M 204.09935,159.00304 207.86045,1 C 138.90698,1 69.953503,1 1.000029,1 l 3.7611,158.00304 c 1.64138,68.95393 2.88226,67.30563 99.669111,84.64438 96.78685,-17.33875 98.02773,-15.69045 99.66911,-84.64438 z"
     inkscape:connector-curvature="0"
     sodipodi:nodetypes="sccscs" />
  <path
     id="path4173-5-9-49-7"
     style="opacity:1;fill:#ffffff;fill-opacity:1;stroke:#000000;stroke-width:0.99999994;stroke-miterlimit:8;stroke-dasharray:none;stroke-dashoffset:4.57999992;stroke-opacity:1"
     d="M 190.94291,68.699306 121.42174,89.152555 104.43024,18.908868 87.43875,89.152555 17.917532,68.699334 70.447264,118.48978 17.917532,168.28023 87.43875,147.82699 l 16.99151,70.2437 16.99148,-70.2437 69.52119,20.45322 -52.5297,-49.79043 z"
     inkscape:connector-curvature="0"
     sodipodi:nodetypes="ccccccccccccc" />
</svg>

<?xml version="1.0" encoding="UTF-8"?>
<svg version="1.0" viewBox="0 0 208.86 244.66" xmlns="http://www.w3.org/2000/svg" xmlns:cc="http://creativecommons.org/ns#" xmlns:dc="http://purl.org/dc/elements/1.1/" xmlns:rdf="http://www.w3.org/1999/02/22-rdf-syntax-ns#">
<metadata>
<rdf:RDF>
<cc:Work rdf:about="">
<dc:format>image/svg+xml</dc:format>
<dc:type rdf:resource="http://purl.org/dc/dcmitype/StillImage"/>
<dc:title/>
</cc:Work>
</rdf:RDF>
</metadata>
<path d="m204.1 159 3.7611-158h-206.86l3.7611 158c1.6414 68.954 2.8823 67.306 99.669 84.644 96.787-17.339 98.028-15.69 99.669-84.644z" fill="#cc2918" fill-rule="evenodd" stroke="#000" stroke-width="2"/>
<path d="m190.94 68.699-69.521 20.453-16.992-70.244-16.991 70.244-69.521-20.453 52.53 49.79-52.53 49.79 69.521-20.453 16.992 70.244 16.991-70.244 69.521 20.453-52.53-49.79z" fill="#fff" stroke="#000" stroke-dashoffset="4.58" stroke-miterlimit="8"/>
</svg>
